images/futuristic_design.svg

<svg width="58" height="46" viewBox="0 0 58 46" fill="none" xmlns="http://www.w3.org/2000/svg">
<path d="M57.7474 44.0489L44.5512 26.9542C46.4093 24.9455 47.904 22.5452 48.8808 19.8142C49.0082 19.4572 49.1103 19.0984 49.2112 18.7397L49.2784 18.5009C49.4619 17.8584 49.0908 17.1881 48.4489 17.0043C47.8099 16.8193 47.1379 17.1916 46.955 17.8353L46.8848 18.0836C46.7992 18.3886 46.7143 18.6936 46.6057 18.9968C45.7904 21.2763 44.5597 23.2879 43.0438 25.0017L35.5919 15.3482C36.2249 13.7578 36.2796 12.0224 35.689 10.4038C35.1982 9.0233 34.2927 7.86886 33.1062 7.04364L35.6062 1.72679C35.8906 1.12212 35.6316 0.400416 35.028 0.115519C34.4262 -0.168788 33.704 0.0895115 33.4197 0.694771L30.9178 6.01547C30.3187 5.85049 29.7046 5.75532 29.0794 5.75532C26.3607 5.75532 23.8594 7.3411 22.6995 9.79849C21.902 11.4932 21.8174 13.3937 22.4578 15.1611C22.4799 15.2232 22.5173 15.2762 22.5411 15.3374L0.256055 43.9165C-0.154589 44.4437 -0.0613678 45.2044 0.464327 45.6158C0.685579 45.7884 0.947541 45.8723 1.20773 45.8723C1.56646 45.8723 1.92223 45.7127 2.16059 45.4072L15.3019 28.5543C17.2925 30.2884 19.5351 31.6363 22.0178 32.517C24.3418 33.3422 26.7166 33.7334 29.0536 33.7334C34.1206 33.7334 38.9989 31.8822 42.7929 28.6341L55.8357 45.5301C56.0741 45.8386 56.4311 46 56.7921 46C57.0506 46 57.3108 45.9173 57.5308 45.747C58.0589 45.338 58.1556 44.5779 57.7474 44.0489ZM22.8249 30.2355C20.5908 29.4422 18.5748 28.2215 16.7899 26.646L23.8955 17.5337C24.5072 18.1934 25.2483 18.7374 26.0949 19.1315C27.0374 19.5794 28.0403 19.7974 29.0673 19.7974C31.0502 19.7974 32.9108 18.9468 34.2264 17.5369L41.3153 26.7201C36.4037 30.982 29.388 32.5641 22.8249 30.2355Z" fill="#4F4F4F"/>
</svg>

<svg width="58" height="46" fill="none" xmlns="http://www.w3.org/2000/svg"><path d="M57.747 44.049L44.551 26.954a20.81 20.81 0 004.33-7.14c.127-.357.23-.716.33-1.074l.067-.24a1.21 1.21 0 00-.83-1.496 1.207 1.207 0 00-1.493.831l-.07.249c-.086.305-.17.61-.28.913a18.397 18.397 0 01-3.561 6.005l-7.452-9.654c.633-1.59.688-3.326.097-4.944a6.894 6.894 0 00-2.583-3.36l2.5-5.317A1.208 1.208 0 1033.42.695l-2.501 5.32a6.912 6.912 0 00-1.839-.26 7.08 7.08 0 00-6.38 4.043 6.942 6.942 0 00-.241 5.363c.022.062.06.115.083.176L.256 43.917a1.212 1.212 0 00.952 1.955c.358 0 .714-.16.953-.465L15.3 28.554c1.992 1.734 4.234 3.082 6.717 3.963a20.992 20.992 0 007.036 1.216c5.067 0 9.945-1.85 13.739-5.099L55.836 45.53a1.205 1.205 0 001.695.217c.528-.409.625-1.17.216-1.698zM22.825 30.235c-2.234-.793-4.25-2.014-6.035-3.589l7.105-9.112a7.045 7.045 0 002.2 1.598 6.875 6.875 0 002.972.665c1.983 0 3.844-.85 5.16-2.26l7.088 9.183c-4.911 4.262-11.927 5.844-18.49 3.515z" fill="#4F4F4F"/></svg>
